!!!COM: Palestrina, Giovanni Perluigi da
!!!OPR: Missa Veni Sancte Spiritus
!!!OMD: Credo
!!!OTL: First Section
**kern	**kern	**kern	**kern	**kern
*Ibass	*Itenor	*Itenor	*Icalto	*Icant
!Bassus	!Tenor 2	!Tenor 1	!Altus	!Cantus
*clefF4	*clefGv2	*clefGv2	*clefG2	*clefG2
*k[b-]	*k[b-]	*k[b-]	*k[b-]	*k[b-]
*G:dor	*G:dor	*G:dor	*G:dor	*G:dor
*M4/2	*M4/2	*M4/2	*M4/2	*M4/2
=1	=1	=1	=1	=1
1r	0d	0r	0r	0r
[1G	.	.	.	.
=2	=2	=2	=2	=2
1G]	1e	0r	0r	0r
1A	2.f	.	.	.
.	4e-	.	.	.
=3	=3	=3	=3	=3
2.B-	4d	0r	0r	1r
.	4c	.	.	.
.	2d	.	.	.
4A	.	.	.	.
2G	2B-	.	.	[1dd
2F#	2A	.	.	.
=4	=4	=4	=4	=4
1G	4B	0r	0g	1dd]
.	4c	.	.	.
.	4d	.	.	.
.	4B	.	.	.
1C	[1c	.	.	1ee
=5	=5	=5	=5	=5
1F	1c]	1r	1a	2.ff
.	.	.	.	4ee-
2BB-	1B-	[1d	2.b-	4dd
.	.	.	.	4cc
2B-	.	.	.	2dd
.	.	.	4a	.
=6	=6	=6	=6	=6
2B-	1r	1d]	2g	2b-
2d	.	.	2f#	2a
2.c	2r	1e	1g	1cc
.	[2c	.	.	.
4B-	.	.	.	.
=7	=7	=7	=7	=7
4A	2c]	2.f	0a	2cc
4G	.	.	.	.
2.F	1f	.	.	2cc
.	.	4e	.	.
.	.	2d	.	2dd
4D	.	.	.	.
2A	[2e	2c#	.	2ee
=8	=8	=8	=8	=8
1D	4e]	1d	0a	1ff
.	4d	.	.	.
.	1d	.	.	.
1r	.	1A	.	1ee
.	2c#	.	.	.
=9	=9	=9	=9	=9
1D	1d	2A	1f	0dd
.	.	2d	.	.
1G	1B-	4d	1g	.
.	.	4c	.	.
.	.	4d	.	.
.	.	4e	.	.
=10	=10	=10	=10	=10
1F	1c	1f	1a	0r
1B-	1d	1f	[1b-	.
=11	=11	=11	=11	=11
1E-	0e-	1g	2b-]	1b-
.	.	.	2g	.
1r	.	2c	1g	1cc
.	.	[2g	.	.
=12	=12	=12	=12	=12
0r	1d	2g]	2.a	1dd
.	.	2f#	.	.
.	.	.	4b-	.
.	1c	2g	1cc	1ee-
.	.	[2a	.	.
=13	=13	=13	=13	=13
0r	2.d	4a]	2f	1.dd
.	.	4g	.	.
.	.	4f	2.a	.
.	4e	4e	.	.
.	2f	2d	.	.
.	.	.	4b-	.
.	2e-	[2g	2g	2cc
=14	=14	=14	=14	=14
0r	1d	2g]	1a	1dd
.	.	2f#	.	.
.	1G	2g	2.b-	1dd
.	.	[2d	.	.
.	.	.	4a	.
=15	=15	=15	=15	=15
1G	1B-	2d]	1g	1r
.	.	2e	.	.
2A	2c	2.f	1r	2r
[2B-	[2d	.	.	[2dd
.	.	4f	.	.
=16	=16	=16	=16	=16
4B-]	4d]	2f	2r	2dd]
4B-	4d	.	.	.
2c	2A	2.e	1a	2ee
2d	[1a	.	.	2.ff
.	.	4d	.	.
2d	.	[2d	2f	.
.	.	.	.	4ff
=17	=17	=17	=17	=17
1A	2a]	2d]	2.a	2ff
.	2e	2c#	.	2.ee
.	.	.	4a	.
1D	2.f	2.d	2a	.
.	.	.	.	4dd
.	.	.	[2a	[2dd
.	8e	8c	.	.
.	8d	8B-	.	.
=18	=18	=18	=18	=18
0r	1e	1A	2a]	2dd]
.	.	.	2a	2cc#
.	1d	2r	2f	[1dd
.	.	[2B-	2f	.
=19	=19	=19	=19	=19
2r	1r	2B-]	2g	2dd]
1F	.	2c	1a	4cc
.	.	.	.	4b-
.	2r	2.d	.	2a
2G	2B-	.	[2b-	2g
.	.	4e	.	.
=20	=20	=20	=20	=20
1A	1c	2f	2b-]	0r
.	.	2.e	2.a	.
1B-	2.d	.	.	.
.	.	4d	4g	.
.	.	2d	4g	.
.	4e	.	8f	.
.	.	.	8g	.
=21	=21	=21	=21	=21
2A	2f#	2c	2a	0r
2G	2g	1d	2b-	.
1A	1e	.	1a	.
.	.	2c#	.	.
=22	=22	=22	=22	=22
1B-	2r	1d	1f	1r
.	2d	.	.	.
2G	2d	1B-	2g	1dd
[2G	[2g	.	[2b-	.
=23	=23	=23	=23	=23
2G]	2g]	2G	2b-]	2dd
2C	2e-	2.G	2cc	1gg
[1G	2d	.	[1b-	.
.	.	4G	.	.
.	2G	[2g	.	2ee-
=24	=24	=24	=24	=24
2G]	4B-	2g]	2b-]	2.dd
.	4c	.	.	.
2D	2.d	2f#	2a	.
.	.	.	.	4dd
1D	.	1f#	1a	1dd
.	8c	.	.	.
.	8B-	.	.	.
.	2A	.	.	.
=25	=25	=25	=25	=25
4G	2.B-	2g	1.g	0dd
4A	.	.	.	.
4B-	.	4G	.	.
4c	4A	4A	.	.
2d	2G	4B-	.	.
.	.	4c	.	.
2D	2A	[2d	2f#	.
=26	=26	=26	=26	=26
1G	1B	2d]	0g	1dd
.	.	1G	.	.
1C	1c	.	.	1ee-
.	.	[2c	.	.
=27	=27	=27	=27	=27
2r	1G	2c]	1g	1dd
1G	.	4B	.	.
.	.	4A	.	.
.	1d	4B	2r	2r
.	.	4c	.	.
2G	.	2d	[2g	[2b
=28	=28	=28	=28	=28
1G	2d	2G	4g]	4b]
.	.	.	4g	4b
.	2d	2.g	2g	2b
2C	1c	.	1e	1cc
.	.	4g	.	.
2C	.	2g	.	.
=29	=29	=29	=29	=29
2.F	2A	1c	1f	1cc
.	2.f	.	.	.
4E-	.	.	.	.
2.D	.	1d	2.f	2r
.	4e-	.	.	.
.	[2d	.	.	[2ff
4C	.	.	4e-	.
=30	=30	=30	=30	=30
2BB-	4d]	2.f	2.d	4ff]
.	4c	.	.	4ee-
2.B-	2B-	.	.	2.dd
.	.	4e-	4c	.
.	2f	2.d	2B-	.
4A	.	.	.	4cc
[2G	2g	.	[2b-	2b-
.	.	4c	.	.
=31	=31	=31	=31	=31
2G]	2d	2B-	4b-]	2.g
.	.	.	4a	.
2C	2e-	4c	1g	.
.	.	4B-	.	4g
1D	1d	4A	.	2dd
.	.	4G	.	.
.	.	2A	2f#	2dd
=32	=32	=32	=32	=32
2r	2r	2G	1g	1dd
2G	2B-	2d	.	.
2A	2c	1f	1r	1r
[2B-	[2d	.	.	.
=33	=33	=33	=33	=33
2B-]	2d]	1g	2r	0r
2c	2.e-	.	2g	.
2.G	.	2g	1b-	.
.	4d	.	.	.
.	2d	[2g	.	.
4B-	.	.	.	.
=34	=34	=34	=34	=34
0A	0c	2g]	1cc	0r
.	.	4f	.	.
.	.	4e	.	.
.	.	1f#	2cc	.
.	.	.	[2cc	.
=35	=35	=35	=35	=35
1G	1d	1g	4cc]	1r
.	.	.	8b-	.
.	.	.	8a	.
.	.	.	2b	.
1F	1f	2r	2cc	1a
.	.	2a	2f	.
=36	=36	=36	=36	=36
0r	2r	2e	2g	1cc
.	2a	2.f	2.a	.
.	2d	.	.	2.dd
.	.	4f	4a	.
.	[2g	2g	2b-	.
.	.	.	.	4dd
=37	=37	=37	=37	=37
0r	4g]	2d	1.a	2dd
.	4f	.	.	.
.	2f	2d	.	1dd
.	[1e	[1A	.	.
.	.	.	2a	4cc#
.	.	.	.	4b
=38	=38	=38	=38	=38
1r	2e]	1A]	1a	2cc#
.	2e	.	.	2cc#
1B-	1d	2r	1f	1dd
.	.	2d	.	.
=39	=39	=39	=39	=39
2B-	0r	2d	2f	1r
2G	.	2e-	2g	.
[1B-	.	[1d	2.f	2r
.	.	.	.	2ff
.	.	.	4e-	.
=40	=40	=40	=40	=40
1B-]	1r	1d]	4d	2ff
.	.	.	4c	.
.	.	.	2B-	2dd
1F	2r	1c	2A	[1ff
.	2f	.	2a	.
=41	=41	=41	=41	=41
0r	2f	1r	2a	1ff]
.	2d	.	2b-	.
.	1f	2r	1a	[1cc
.	.	[2f	.	.
=42	=42	=42	=42	=42
2r	1c	2f]	1g	1cc]
1c	.	1e	.	.
.	2r	.	1r	1r
2B-	[2f	2d	.	.
=43	=43	=43	=43	=43
1A	2f]	4c	2r	0r
.	.	4d	.	.
.	1e	4e	1cc	.
.	.	4f	.	.
2G	.	2g	.	.
2G	2d	2g	[2b-	.
=44	=44	=44	=44	=44
1F	2.f	2c	2b-]	2r
.	.	2F	1a	1cc
.	4e	.	.	.
1r	2d	2F	.	.
.	2d	2G	[2g	2b-
=45	=45	=45	=45	=45
0r	1c	2A	4g]	1a
.	.	.	4f	.
.	.	2F	1f	.
.	1r	1c	.	2g
.	.	.	2e	2g
=46	=46	=46	=46	=46
1.B-	1.d	0r	2f	1f
.	.	.	1f	.
.	.	.	.	1r
2G	2e-	.	2g	.
=47	=47	=47	=47	=47
0B-	0d	0r	2.f	2r
.	.	.	.	1ff
.	.	.	4e-	.
.	.	.	4d	.
.	.	.	4c	.
.	.	.	2B-	2dd
=48	=48	=48	=48	=48
1F	1c	2r	2A	0ff
.	.	1f	1a	.
1r	1r	.	.	.
.	.	2d	2b-	.
=49	=49	=49	=49	=49
1r	2r	1f	1a	2cc
.	2f	.	.	2cc
2r	2e	2c	2g	2.cc
2F	[2f	2c	2a	.
.	.	.	.	4b-
=50	=50	=50	=50	=50
2F	2f]	2c	2.f	2a
2D	2.F	2B-	.	2dd
.	.	.	4g	.
1F	.	1A	2a	[1cc
.	4G	.	.	.
.	4A	.	[2f	.
.	4B-	.	.	.
=51	=51	=51	=51	=51
1C	1c	1G	2f]	1cc]
.	.	.	2e	.
2r	1c	1F	2.f	1a
[2c	.	.	.	.
.	.	.	4e	.
=52	=52	=52	=52	=52
2c]	2r	1G	1d	1g
2B	1g	.	.	.
2c	.	1r	1r	2.a
2d	2f#	.	.	.
.	.	.	.	4b-
=53	=53	=53	=53	=53
1.c	2g	1r	1.e	1cc
.	2a	.	.	.
.	1g	2r	.	1r
2B-	.	[2g	2d	.
=54	=54	=54	=54	=54
1A	1c	2g]	2e	2r
.	.	2f#	2c	1cc
1G	1r	1g	1d	.
.	.	.	.	2b
=55	=55	=55	=55	=55
0r	2r	1a	1f	2cc
.	1f	.	.	2dd
.	.	1g	1c	[1cc
.	2e	.	.	.
=56	=56	=56	=56	=56
0r	2f	2a	0r	2cc]
.	2g	2.g	.	2b-
.	2c	.	.	1a
.	.	8f	.	.
.	.	8e	.	.
.	2d	2f#	.	.
=57	=57	=57	=57	=57
1C	1e-	2g	1r	2cc
.	.	1c	.	2cc
1G	2d	.	2r	1dd
.	2G	2B	[2g	.
=58	=58	=58	=58	=58
2r	1A	2c	2g]	2cc
2D	.	2d	2f#	2a
2E	2G	2c	2g	1cc
[2F	2F	[2c	2a	.
=59	=59	=59	=59	=59
4F]	2A	2c]	2a	1.dd
4F	.	.	.	.
2G	1d	2B-	1g	.
2D	.	1A	.	.
2D	2d	.	2f#	2dd
=60	=60	=60	=60	=60
0G	2d	2.B-	2g	1dd
.	2g	.	2b-	.
.	.	4A	.	.
.	1g	4G	1b-	2r
.	.	4A	.	.
.	.	4B-	.	2dd
.	.	4c	.	.
=61	=61	=61	=61	=61
0r	1.f	1d	1.a	1dd
.	.	1r	.	2.cc
.	4e	.	4g	.
.	4d	.	4f	4b-
=62	=62	=62	=62	=62
0r	2e	0r	2g	2cc
.	2d	.	2b-	2dd
.	2f	.	2a	2cc
.	2g	.	2g	2b-
=63	=63	=63	=63	=63
2r	1d	2r	1f	0a
2d	.	2d	.	.
1d	1r	1f	2r	.
.	.	.	2a	.
=64	=64	=64	=64	=64
2.c	0r	2.e	2a	0r
.	.	.	2g	.
4B	.	4d	.	.
2c	.	2e	2a	.
2d	.	2f	2b-	.
=65	=65	=65	=65	=65
2c	0r	2e-	2a	0r
2B-	.	2d	1g	.
1A	.	1c	.	.
.	.	.	2f#	.
=66	=66	=66	=66	=66
1G	2r	1d	1g	2r
.	2g	.	.	2b-
1r	2f	1r	2r	2a
.	2e	.	2c	2g
=67	=67	=67	=67	=67
1B-	2.d	2r	2d	2.f
.	.	2d	1f	.
.	4e	.	.	4g
2A	2f	2c	.	2a
2G	2g	[2B-	4e-	2b-
.	.	.	4d	.
=68	=68	=68	=68	=68
1F	1c	2B-]	0f	1cc
.	.	2A	.	.
1BB-	2r	1d	.	2b-
.	2B-	.	.	[2ff
=69	=69	=69	=69	=69
1C	2A	1c	1cc	2ff]
.	2G	.	.	2ee-
2.D	2.F	2r	2b-	1dd
.	.	[2f	[2a	.
4E-	4G	.	.	.
=70	=70	=70	=70	=70
2F	2A	4f]	2a]	2cc
.	.	4e-	.	.
2BB-	2B-	2d	2f	1b-
1F	1c	2c	1f	.
.	.	2F	.	2a
=71	=71	=71	=71	=71
1BB-	1B-	2r	1f	1b-
.	.	1B-	.	.
[1B-	2r	.	[1f	[1dd
.	[2B-	[2d	.	.
=72	=72	=72	=72	=72
1B-]	2B-]	4d]	1f]	1dd]
.	.	4e-	.	.
.	2.d	1f	.	.
1B-	.	.	1b-	1dd
.	4e-	.	.	.
.	[2f	2B-	.	.
=73	=73	=73	=73	=73
0F	2f]	1.c	0a	1cc
.	2f	.	.	.
.	2.f	.	.	[1dd
.	.	4B	.	.
.	4e-	4A	.	.
=74	=74	=74	=74	=74
1G	1d	1B	1g	1dd]
1C	1c	2c	1g	1ee-
.	.	2G	.	.
=75	=75	=75	=75	=75
[0D	1A	2r	1f#	1dd
.	.	1d	.	.
.	2r	.	[1a	1r
.	[2d	[2f	.	.
=76	=76	=76	=76	=76
0D]	2d]	2f]	1a]	2r
.	1f	2d	.	1dd
.	.	1d	[1a	.
.	2d	.	.	[2ff
=77	=77	=77	=77	=77
0r	2.d	2r	1a]	2ff]
.	.	2f	.	2dd
.	4c	.	.	.
.	1B-	2d	1g	1dd
.	.	2d	.	.
=78	=78	=78	=78	=78
0r	1A	1e	1a	1cc#
.	1G	1g	1b-	2.dd
.	.	.	.	4ee
=79	=79	=79	=79	=79
2r	2F	2c	2a	1ff
1F	1c	1f	1a	.
.	.	.	.	2r
2F	2c	2f	2a	[2ff
=80	=80	=80	=80	=80
0F	2.A	2f	0a	2ff]
.	.	4F	.	2ff
.	4G	4G	.	.
.	4F	4A	.	1ff
.	4G	4B-	.	.
.	4A	4c	.	.
.	4B-	4d	.	.
=81	=81	=81	=81	=81
1C	1c	4e	1g	1ee
.	.	4f	.	.
.	.	2g	.	.
[1F	2A	[1f	[1a	[1ff
.	[2c	.	.	.
=82	=82	=82	=82	=82
2F]	2c]	2f]	2a]	2ff]
2BB-	2B-	2f	2b-	2dd
1BB-	1B-	2f	2b-	1dd
.	.	2d	2f	.
=83	=83	=83	=83	=83
0r	1r	2e-	1g	1b-
.	.	2g	.	.
.	2r	2.f	1a	1cc
.	[2F	.	.	.
.	.	4e-	.	.
=84	=84	=84	=84	=84
1BB-	2F]	2d	1b-	1dd
.	1G	2d	.	.
1C	.	1c	2g	1ee-
.	[2A	.	4cc	.
.	.	.	4b-	.
=85	=85	=85	=85	=85
1D	2A]	1F	4a	4dd
.	.	.	4g	4cc
.	1B-	.	2f	4b-
.	.	.	.	4a
1E-	.	1G	2b-	1g
.	2c	.	4a	.
.	.	.	4g	.
=86	=86	=86	=86	=86
[0D	[0d	1A	4f#	1dd
.	.	.	4g	.
.	.	.	1a	.
.	.	1B-	.	[1dd
.	.	.	[2g	.
=87	=87	=87	=87	=87
0D]	0d]	0A	2g]	1dd]
.	.	.	4f#	.
.	.	.	4e	.
.	.	.	1f#	1a
=88	=88	=88	=88	=88
[0G	[0d	[0G	[0g	[0b
=89	=89	=89	=89	=89
0G]	0d]	0G]	0g]	0b]
*-	*-	*-	*-	*-
!!!CDT: 1525/^1526/-1594/2/2
!!!OCY: Italia
!!!AGN: Mass (Parody)
!!!AST: renaissance, vocal
!!!ASW: Motet (unidentified (Pal?))
!!!PWK: Masses, Book 4
!!!RNB: Cadence finals: D
!!!YOR: Le Opere Complete, v. 10, p. 115
!!!YOO: Rome, Italy: Fratelli Scalera
!!!END: 1992//
!!!EED: John Miller
!!!YEC: Copyright 2000, John Miller
!!!YEN: United States of America
!!!YEM: Rights to all derivative electronic formats reserved.
!!!YEM: Refer to licensing agreement for further details.
!!!YEM: This file must be accompanied by the licensing agreement.
!!!YEM: A copy of the licensing agreement may be found at http://www.music-cog.ohio-state.edu/HumdrumDatabases/Palestrina/license.txt
!!!EMD: converted to Humdrum by Bret Aarden
